img/kickstarter.svg

<svg width="191" height="63" viewBox="0 0 191 63" xmlns="http://www.w3.org/2000/svg" xmlns:sketch="http://www.bohemiancoding.com/sketch/ns"><title>Kickstarter</title><desc>Created with Sketch.</desc><g sketch:type="MSLayerGroup" fill="none"><path d="M190.5 54.206c0 4.627-3.76 8.38-8.397 8.38h-173.203c-4.638 0-8.399-3.753-8.399-8.38v-45.241c0-4.627 3.761-8.379 8.399-8.379h173.203c4.637 0 8.397 3.752 8.397 8.379v45.241" fill="#1A1919" sketch:type="MSShapeGroup"/><path d="M20.781 28.746l3.394-4.918c.642-.926 1.47-1.39 2.486-1.39.829 0 1.546.295 2.152.882.606.589.909 1.292.909 2.112 0 .606-.161 1.14-.481 1.604l-3.061 4.45 3.742 4.745c.374.472.562 1.025.562 1.657 0 .838-.295 1.557-.883 2.158-.588.602-1.301.902-2.138.902-.918 0-1.617-.298-2.098-.895l-4.584-5.72v3.154c0 .9-.156 1.599-.468 2.099-.57.908-1.399 1.362-2.486 1.362-.989 0-1.755-.333-2.299-1.002-.508-.615-.761-1.43-.761-2.445v-11.695c0-.962.258-1.755.775-2.379.543-.659 1.291-.989 2.245-.989.909 0 1.666.33 2.272.989.339.366.552.735.642 1.11.053.231.08.663.08 1.296v2.913zm16.859-2.579v11.32c0 .98-.254 1.787-.761 2.419-.544.695-1.297 1.042-2.259 1.042-.882 0-1.626-.324-2.232-.975-.508-.544-.762-1.372-.762-2.486v-11.32c0-1.265.254-2.183.762-2.753.579-.651 1.323-.976 2.232-.976.909 0 1.653.321 2.232.963.526.587.788 1.51.788 2.766zm10.823-4.09c2.219-.008 4.259.735 6.121 2.232 1.462 1.176 2.192 2.393 2.192 3.649 0 1.069-.445 1.898-1.336 2.486-.508.339-1.061.508-1.657.508-.49 0-.958-.116-1.404-.348-.187-.098-.65-.548-1.39-1.35-.686-.748-1.546-1.123-2.579-1.123-.998 0-1.833.346-2.506 1.036-.673.691-1.009 1.535-1.009 2.533 0 .989.336 1.829 1.009 2.52.673.69 1.504 1.035 2.493 1.035.819 0 1.581-.276 2.285-.828.436-.419.869-.838 1.296-1.257.464-.401 1.052-.601 1.764-.601.82 0 1.531.287 2.132.862.601.574.902 1.272.902 2.091 0 1.114-.655 2.241-1.964 3.381-1.836 1.604-3.956 2.406-6.362 2.406-1.488 0-2.891-.316-4.21-.949-1.666-.802-2.991-1.98-3.976-3.535-.985-1.554-1.477-3.254-1.477-5.098 0-2.762 1.025-5.114 3.074-7.057 1.809-1.711 4.009-2.575 6.602-2.593zm15.437 6.669l3.395-4.918c.641-.926 1.47-1.39 2.486-1.39.828 0 1.545.295 2.152.882.605.589.908 1.292.908 2.112 0 .606-.16 1.14-.481 1.604l-3.06 4.45 3.742 4.745c.374.472.561 1.025.561 1.657 0 .838-.294 1.557-.882 2.158-.588.602-1.301.902-2.138.902-.918 0-1.618-.298-2.099-.895l-4.584-5.72v3.154c0 .9-.156 1.599-.468 2.099-.57.908-1.399 1.362-2.485 1.362-.989 0-1.756-.333-2.299-1.002-.508-.615-.762-1.43-.762-2.445v-11.695c0-.962.258-1.755.775-2.379.544-.659 1.292-.989 2.246-.989.908 0 1.665.33 2.271.989.339.366.553.735.642 1.11.053.231.08.663.08 1.296v2.913z" fill="#fff" sketch:type="MSShapeGroup"/><path d="M77.366 33.919c.669 0 1.381.294 2.139.882.944.74 1.59 1.109 1.938 1.109.516 0 .775-.267.775-.802 0-.294-.152-.543-.455-.749-.16-.107-1.06-.449-2.699-1.029-2.682-.944-4.023-2.69-4.023-5.239 0-1.924.708-3.443 2.125-4.557 1.238-.971 2.771-1.457 4.597-1.457 1.577 0 2.949.377 4.117 1.13 1.167.753 1.751 1.722 1.751 2.907 0 .713-.221 1.307-.662 1.784-.441.477-1.014.714-1.718.714-.739 0-1.559-.351-2.459-1.055-.561-.436-.984-.655-1.269-.655-.49 0-.735.241-.735.722 0 .454.605.869 1.817 1.243 1.675.526 2.972 1.167 3.889 1.924 1.221 1.016 1.832 2.442 1.832 4.277 0 1.996-.687 3.555-2.059 4.678-1.274 1.042-2.931 1.563-4.971 1.563-2.041 0-3.729-.543-5.066-1.63-1.069-.864-1.603-1.875-1.603-3.034 0-.775.262-1.421.788-1.938.526-.516 1.176-.78 1.951-.788zm16.092-5.747h-1.591c-.882 0-1.613-.241-2.192-.722-.614-.516-.922-1.207-.922-2.071 0-.517.145-1.014.434-1.491.29-.476.664-.815 1.123-1.015.459-.201 1.548-.301 3.268-.301h6.068c1.487 0 2.45.089 2.886.267.481.196.871.533 1.169 1.009.299.477.449.978.449 1.504 0 .828-.33 1.55-.99 2.165-.472.437-1.243.655-2.312.655h-1.377v9.088c0 .989-.168 1.755-.507 2.298-.571.909-1.395 1.364-2.472 1.364-1.079 0-1.907-.415-2.487-1.243-.365-.517-.547-1.301-.547-2.352v-9.155zm14.621 10.277c-.286.677-.579 1.181-.882 1.51-.606.66-1.341.989-2.205.989-1.061 0-1.885-.427-2.473-1.283-.347-.507-.521-1.077-.521-1.71 0-.526.125-1.056.374-1.591l5.707-12.148c.552-1.185 1.474-1.778 2.766-1.778 1.31 0 2.25.61 2.82 1.831l5.761 12.242c.232.491.347.976.347 1.457 0 .713-.232 1.346-.695 1.898-.606.722-1.381 1.082-2.325 1.082-.776 0-1.422-.24-1.939-.721-.383-.356-.766-.949-1.149-1.778h-5.586zm24.985-4.664l1.416 2.272c.392.632.588 1.283.588 1.951 0 .847-.291 1.548-.875 2.105-.584.557-1.298.835-2.144.835-1.088 0-1.912-.463-2.473-1.39l-2.513-4.116v2.473c0 .846-.278 1.564-.835 2.151-.557.589-1.259.882-2.105.882-1.034 0-1.818-.369-2.352-1.109-.481-.65-.722-1.506-.722-2.566v-11.239c0-2.308 1.243-3.462 3.729-3.462h3.822c1.256 0 2.424.363 3.502 1.089 1.078.727 1.866 1.669 2.365 2.827.374.873.562 1.751.562 2.633 0 1.648-.655 3.203-1.965 4.664zm7.147-5.613h-1.591c-.882 0-1.612-.241-2.191-.722-.615-.516-.923-1.207-.923-2.071 0-.517.146-1.014.435-1.491.289-.476.664-.815 1.122-1.015.459-.201 1.548-.301 3.268-.301h6.068c1.488 0 2.45.089 2.886.267.481.196.871.533 1.17 1.009.298.477.448.978.448 1.504 0 .828-.33 1.55-.989 2.165-.473.437-1.243.655-2.312.655h-1.377v9.088c0 .989-.169 1.755-.508 2.298-.57.909-1.395 1.364-2.472 1.364-1.078 0-1.907-.415-2.486-1.243-.366-.517-.548-1.301-.548-2.352v-9.155zm17.828 7.003h2.734c1.129 0 1.97.232 2.521.695.649.553.974 1.265.974 2.138 0 .891-.326 1.613-.976 2.165-.508.428-1.341.642-2.499.642h-4.691c-1.105 0-1.862-.085-2.272-.254-.803-.33-1.333-.869-1.591-1.617-.16-.481-.24-1.27-.24-2.366v-9.916c0-.829.027-1.385.08-1.671.098-.579.334-1.069.708-1.47.428-.455.971-.744 1.631-.869.311-.053.944-.08 1.897-.08h3.596c.98 0 1.55.009 1.71.027.642.062 1.167.249 1.577.561.731.553 1.096 1.274 1.096 2.165 0 .962-.32 1.697-.96 2.205-.569.455-1.347.682-2.334.682h-2.961v1.243h2.36c.692 0 1.266.182 1.719.548.479.392.72.931.72 1.617 0 1.452-.885 2.179-2.653 2.179h-2.146v1.376zm19.35-1.39l1.417 2.272c.392.632.588 1.283.588 1.951 0 .847-.293 1.548-.876 2.105-.583.557-1.299.835-2.145.835-1.087 0-1.911-.463-2.472-1.39l-2.513-4.116v2.473c0 .846-.279 1.564-.835 2.151-.557.589-1.259.882-2.105.882-1.034 0-1.818-.369-2.352-1.109-.482-.65-.722-1.506-.722-2.566v-11.239c0-2.308 1.243-3.462 3.729-3.462h3.822c1.256 0 2.423.363 3.501 1.089 1.078.727 1.867 1.669 2.366 2.827.374.873.561 1.751.561 2.633 0 1.648-.654 3.203-1.964 4.664z" fill="#6EBA6D" sketch:type="MSShapeGroup"/></g></svg>

<?xml version="1.0" encoding="UTF-8" standalone="no"?>
<svg width="191px" height="63px" viewBox="0 0 191 63" version="1.1" xmlns="http://www.w3.org/2000/svg" xmlns:xlink="http://www.w3.org/1999/xlink" xmlns:sketch="http://www.bohemiancoding.com/sketch/ns">
    <!-- Generator: Sketch 3.2.2 (9983) - http://www.bohemiancoding.com/sketch -->
    <title>Kickstarter</title>
    <desc>Created with Sketch.</desc>
    <defs></defs>
    <g id="Page-1" stroke="none" stroke-width="1" fill="none" fill-rule="evenodd" sketch:type="MSPage">
        <g id="Kickstarter" sketch:type="MSLayerGroup">
            <path d="M190.5,54.2060595 C190.5,58.8330144 186.739839,62.586 182.102574,62.586 L8.89942375,62.586 C4.26115966,62.586 0.5,58.8330144 0.5,54.2060595 L0.5,8.96494398 C0.5,4.33798907 4.26115966,0.586 8.89942375,0.586 L182.102574,0.586 C186.739839,0.586 190.5,4.33798907 190.5,8.96494398 L190.5,54.2060595" id="Fill-1" fill="#1A1919" sketch:type="MSShapeGroup"></path>
            <path d="M20.781,28.746 L24.175,23.828 C24.817,22.902 25.645,22.438 26.661,22.438 C27.49,22.438 28.207,22.733 28.813,23.32 C29.419,23.909 29.722,24.612 29.722,25.432 C29.722,26.038 29.561,26.572 29.241,27.036 L26.18,31.486 L29.922,36.231 C30.296,36.703 30.484,37.256 30.484,37.888 C30.484,38.726 30.189,39.445 29.601,40.046 C29.013,40.648 28.3,40.948 27.463,40.948 C26.545,40.948 25.846,40.65 25.365,40.053 L20.781,34.333 L20.781,37.487 C20.781,38.387 20.625,39.086 20.313,39.586 C19.743,40.494 18.914,40.948 17.827,40.948 C16.838,40.948 16.072,40.615 15.528,39.946 C15.02,39.331 14.767,38.516 14.767,37.501 L14.767,25.806 C14.767,24.844 15.025,24.051 15.542,23.427 C16.085,22.768 16.833,22.438 17.787,22.438 C18.696,22.438 19.453,22.768 20.059,23.427 C20.398,23.793 20.611,24.162 20.701,24.537 C20.754,24.768 20.781,25.2 20.781,25.833 L20.781,28.746 L20.781,28.746 Z M37.64,26.167 L37.64,37.487 C37.64,38.467 37.386,39.274 36.879,39.906 C36.335,40.601 35.582,40.948 34.62,40.948 C33.738,40.948 32.994,40.624 32.388,39.973 C31.88,39.429 31.626,38.601 31.626,37.487 L31.626,26.167 C31.626,24.902 31.88,23.984 32.388,23.414 C32.967,22.763 33.711,22.438 34.62,22.438 C35.529,22.438 36.273,22.759 36.852,23.401 C37.378,23.988 37.64,24.911 37.64,26.167 L37.64,26.167 Z M48.463,22.077 C50.682,22.069 52.722,22.812 54.584,24.309 C56.046,25.485 56.776,26.702 56.776,27.958 C56.776,29.027 56.331,29.856 55.44,30.444 C54.932,30.783 54.379,30.952 53.783,30.952 C53.293,30.952 52.825,30.836 52.379,30.604 C52.192,30.506 51.729,30.056 50.989,29.254 C50.303,28.506 49.443,28.131 48.41,28.131 C47.412,28.131 46.577,28.477 45.904,29.167 C45.231,29.858 44.895,30.702 44.895,31.7 C44.895,32.689 45.231,33.529 45.904,34.22 C46.577,34.91 47.408,35.255 48.397,35.255 C49.216,35.255 49.978,34.979 50.682,34.427 C51.118,34.008 51.551,33.589 51.978,33.17 C52.442,32.769 53.03,32.569 53.742,32.569 C54.562,32.569 55.273,32.856 55.874,33.431 C56.475,34.005 56.776,34.703 56.776,35.522 C56.776,36.636 56.121,37.763 54.812,38.903 C52.976,40.507 50.856,41.309 48.45,41.309 C46.962,41.309 45.559,40.993 44.24,40.36 C42.574,39.558 41.249,38.38 40.264,36.825 C39.279,35.271 38.787,33.571 38.787,31.727 C38.787,28.965 39.812,26.613 41.861,24.67 C43.67,22.959 45.87,22.095 48.463,22.077 L48.463,22.077 Z M63.9,28.746 L67.295,23.828 C67.936,22.902 68.765,22.438 69.781,22.438 C70.609,22.438 71.326,22.733 71.933,23.32 C72.538,23.909 72.841,24.612 72.841,25.432 C72.841,26.038 72.681,26.572 72.36,27.036 L69.3,31.486 L73.042,36.231 C73.416,36.703 73.603,37.256 73.603,37.888 C73.603,38.726 73.309,39.445 72.721,40.046 C72.133,40.648 71.42,40.948 70.583,40.948 C69.665,40.948 68.965,40.65 68.484,40.053 L63.9,34.333 L63.9,37.487 C63.9,38.387 63.744,39.086 63.432,39.586 C62.862,40.494 62.033,40.948 60.947,40.948 C59.958,40.948 59.191,40.615 58.648,39.946 C58.14,39.331 57.886,38.516 57.886,37.501 L57.886,25.806 C57.886,24.844 58.144,24.051 58.661,23.427 C59.205,22.768 59.953,22.438 60.907,22.438 C61.815,22.438 62.572,22.768 63.178,23.427 C63.517,23.793 63.731,24.162 63.82,24.537 C63.873,24.768 63.9,25.2 63.9,25.833 L63.9,28.746 L63.9,28.746 Z" id="Fill-2" fill="#FFFFFF" sketch:type="MSShapeGroup"></path>
            <path d="M77.366,33.919 C78.035,33.919 78.747,34.213 79.505,34.801 C80.449,35.541 81.095,35.91 81.443,35.91 C81.959,35.91 82.218,35.643 82.218,35.108 C82.218,34.814 82.066,34.565 81.763,34.359 C81.603,34.252 80.703,33.91 79.064,33.33 C76.382,32.386 75.041,30.64 75.041,28.091 C75.041,26.167 75.749,24.648 77.166,23.534 C78.404,22.563 79.937,22.077 81.763,22.077 C83.34,22.077 84.712,22.454 85.88,23.207 C87.047,23.96 87.631,24.929 87.631,26.114 C87.631,26.827 87.41,27.421 86.969,27.898 C86.528,28.375 85.955,28.612 85.251,28.612 C84.512,28.612 83.692,28.261 82.792,27.557 C82.231,27.121 81.808,26.902 81.523,26.902 C81.033,26.902 80.788,27.143 80.788,27.624 C80.788,28.078 81.393,28.493 82.605,28.867 C84.28,29.393 85.577,30.034 86.494,30.791 C87.715,31.807 88.326,33.233 88.326,35.068 C88.326,37.064 87.639,38.623 86.267,39.746 C84.993,40.788 83.336,41.309 81.296,41.309 C79.255,41.309 77.567,40.766 76.23,39.679 C75.161,38.815 74.627,37.804 74.627,36.645 C74.627,35.87 74.889,35.224 75.415,34.707 C75.941,34.191 76.591,33.927 77.366,33.919 L77.366,33.919 Z M93.458,28.172 L91.867,28.172 C90.985,28.172 90.254,27.931 89.675,27.45 C89.061,26.934 88.753,26.243 88.753,25.379 C88.753,24.862 88.898,24.365 89.187,23.888 C89.477,23.412 89.851,23.073 90.31,22.873 C90.769,22.672 91.858,22.572 93.578,22.572 L99.646,22.572 C101.133,22.572 102.096,22.661 102.532,22.839 C103.013,23.035 103.403,23.372 103.701,23.848 C104,24.325 104.15,24.826 104.15,25.352 C104.15,26.18 103.82,26.902 103.16,27.517 C102.688,27.954 101.917,28.172 100.848,28.172 L99.471,28.172 L99.471,37.26 C99.471,38.249 99.303,39.015 98.964,39.558 C98.393,40.467 97.569,40.922 96.492,40.922 C95.413,40.922 94.585,40.507 94.005,39.679 C93.64,39.162 93.458,38.378 93.458,37.327 L93.458,28.172 L93.458,28.172 Z M108.079,38.449 C107.793,39.126 107.5,39.63 107.197,39.959 C106.591,40.619 105.856,40.948 104.992,40.948 C103.931,40.948 103.107,40.521 102.519,39.665 C102.172,39.158 101.998,38.588 101.998,37.955 C101.998,37.429 102.123,36.899 102.372,36.364 L108.079,24.216 C108.631,23.031 109.553,22.438 110.845,22.438 C112.155,22.438 113.095,23.048 113.665,24.269 L119.426,36.511 C119.658,37.002 119.773,37.487 119.773,37.968 C119.773,38.681 119.541,39.314 119.078,39.866 C118.472,40.588 117.697,40.948 116.753,40.948 C115.977,40.948 115.331,40.708 114.814,40.227 C114.431,39.871 114.048,39.278 113.665,38.449 L108.079,38.449 L108.079,38.449 Z M133.064,33.785 L134.48,36.057 C134.872,36.689 135.068,37.34 135.068,38.008 C135.068,38.855 134.777,39.556 134.193,40.113 C133.609,40.67 132.895,40.948 132.049,40.948 C130.961,40.948 130.137,40.485 129.576,39.558 L127.063,35.442 L127.063,37.915 C127.063,38.761 126.785,39.479 126.228,40.066 C125.671,40.655 124.969,40.948 124.123,40.948 C123.089,40.948 122.305,40.579 121.771,39.839 C121.29,39.189 121.049,38.333 121.049,37.273 L121.049,26.034 C121.049,23.726 122.292,22.572 124.778,22.572 L128.6,22.572 C129.856,22.572 131.024,22.935 132.102,23.661 C133.18,24.388 133.968,25.33 134.467,26.488 C134.841,27.361 135.029,28.239 135.029,29.121 C135.029,30.769 134.374,32.324 133.064,33.785 L133.064,33.785 Z M140.211,28.172 L138.62,28.172 C137.738,28.172 137.008,27.931 136.429,27.45 C135.814,26.934 135.506,26.243 135.506,25.379 C135.506,24.862 135.652,24.365 135.941,23.888 C136.23,23.412 136.605,23.073 137.063,22.873 C137.522,22.672 138.611,22.572 140.331,22.572 L146.399,22.572 C147.887,22.572 148.849,22.661 149.285,22.839 C149.766,23.035 150.156,23.372 150.455,23.848 C150.753,24.325 150.903,24.826 150.903,25.352 C150.903,26.18 150.573,26.902 149.914,27.517 C149.441,27.954 148.671,28.172 147.602,28.172 L146.225,28.172 L146.225,37.26 C146.225,38.249 146.056,39.015 145.717,39.558 C145.147,40.467 144.322,40.922 143.245,40.922 C142.167,40.922 141.338,40.507 140.759,39.679 C140.393,39.162 140.211,38.378 140.211,37.327 L140.211,28.172 L140.211,28.172 Z M158.039,35.175 L160.773,35.175 C161.902,35.175 162.743,35.407 163.294,35.87 C163.943,36.423 164.268,37.135 164.268,38.008 C164.268,38.899 163.942,39.621 163.292,40.173 C162.784,40.601 161.951,40.815 160.793,40.815 L156.102,40.815 C154.997,40.815 154.24,40.73 153.83,40.561 C153.027,40.231 152.497,39.692 152.239,38.944 C152.079,38.463 151.999,37.674 151.999,36.578 L151.999,26.662 C151.999,25.833 152.026,25.277 152.079,24.991 C152.177,24.412 152.413,23.922 152.787,23.521 C153.215,23.066 153.758,22.777 154.418,22.652 C154.729,22.599 155.362,22.572 156.315,22.572 L159.911,22.572 C160.891,22.572 161.461,22.581 161.621,22.599 C162.263,22.661 162.788,22.848 163.198,23.16 C163.929,23.713 164.294,24.434 164.294,25.325 C164.294,26.287 163.974,27.022 163.334,27.53 C162.765,27.985 161.987,28.212 161,28.212 L158.039,28.212 L158.039,29.455 L160.399,29.455 C161.091,29.455 161.665,29.637 162.118,30.003 C162.597,30.395 162.838,30.934 162.838,31.62 C162.838,33.072 161.953,33.799 160.185,33.799 L158.039,33.799 L158.039,35.175 L158.039,35.175 Z M177.389,33.785 L178.806,36.057 C179.198,36.689 179.394,37.34 179.394,38.008 C179.394,38.855 179.101,39.556 178.518,40.113 C177.935,40.67 177.219,40.948 176.373,40.948 C175.286,40.948 174.462,40.485 173.901,39.558 L171.388,35.442 L171.388,37.915 C171.388,38.761 171.109,39.479 170.553,40.066 C169.996,40.655 169.294,40.948 168.448,40.948 C167.414,40.948 166.63,40.579 166.096,39.839 C165.614,39.189 165.374,38.333 165.374,37.273 L165.374,26.034 C165.374,23.726 166.617,22.572 169.103,22.572 L172.925,22.572 C174.181,22.572 175.348,22.935 176.426,23.661 C177.504,24.388 178.293,25.33 178.792,26.488 C179.166,27.361 179.353,28.239 179.353,29.121 C179.353,30.769 178.699,32.324 177.389,33.785 L177.389,33.785 Z" id="Fill-3" fill="#6EBA6D" sketch:type="MSShapeGroup"></path>
        </g>
    </g>
</svg>
